X:1
T:Streams of Lovely Nancy
M:3/4
L:1/8
K:G
 GG| G2 B2 DC| C2 B,2 B,C|D-G BA(3A3.99999962500005/5.99999925000009A3.99999962500005/5.99999925000009G3.99999962500005/5.99999925000009A3.99999962500005/5.99999925000009G3.99999962500005/5.99999925000009F3.99999962500005/5.99999925000009|\
 G4 FG| A2 d2c-B|A-dc-B AG| B2 D3E/2-D/2| D4 FG| A2 d2 cB|A-Bc-B AG|\
 B2 D2 D2| A2d-cA-F| G2 B2 DC| C2 B,2 B,C| D2 G2B-A| G4||

